X: 9294
T: Dance Ti' Thy Daddy
R: three-two
M: 3/2
K: Amajor
|:A2A2 A2F2 E2C2|B,2B2 B2A2 G2E2|E2A2 A2F2 E2C2|A,2A2 A2G2 A4:|
|:c4 c2B2 c2e2|B4 B2A2 G2[E2B2]|c4 c2B2 c2[A2e2]|E2A2 A2G2 A4:|

